Adwaita++/actions/22/object-rotate-right.svg

<svg height="22" viewBox="0 0 22 22" width="22" xmlns="http://www.w3.org/2000/svg">
  <path d="m7.9804688.00195313v1.99999997c-3.3137 0-6 2.6863-6 6 0 3.3136999 2.6863 5.9999999 6 5.9999999 3.2801002 0 5.9403402-2.633191 5.9941402-5.9003905a1 1 0 0 0 .00586-.0996094 1 1 0 0 0 -1-1 1 1 0 0 0 -1 1c0 2.2090999-1.7909 3.9999999-4.0000002 3.9999999-2.2091 0-4-1.7909-4-3.9999999 0-2.2091 1.7909-4 4-4v2l4.0000002-3z" fill="#444" transform="translate(3 3)"/>
</svg>

<svg xmlns="http://www.w3.org/2000/svg" width="22" height="22" viewBox="0 0 22 22">
 <defs>
  <style id="current-color-scheme" type="text/css">
   .ColorScheme-Text { color:#444444; } .ColorScheme-Highlight { color:#4285f4; }
  </style>
 </defs>
 <path style="fill:currentColor" class="ColorScheme-Text" d="M 7.9804688 0.001953125 L 7.9804688 2.0019531 C 4.6667688 2.0019531 1.9804688 4.6882531 1.9804688 8.0019531 C 1.9804688 11.315653 4.6667688 14.001953 7.9804688 14.001953 C 11.260569 14.001953 13.920809 11.368762 13.974609 8.1015625 A 1 1 0 0 0 13.980469 8.0019531 A 1 1 0 0 0 12.980469 7.0019531 A 1 1 0 0 0 11.980469 8.0019531 C 11.980469 10.211053 10.189569 12.001953 7.9804688 12.001953 C 5.7713688 12.001953 3.9804688 10.211053 3.9804688 8.0019531 C 3.9804688 5.7928531 5.7713688 4.0019531 7.9804688 4.0019531 L 7.9804688 6.0019531 L 11.980469 3.0019531 L 7.9804688 0.001953125 z" transform="translate(3 3)"/>
</svg>
